Numix/48/mimetypes/virtualbox-vbox.svg

<?xml version="1.0" encoding="UTF-8" standalone="no"?>
<svg
   xmlns:dc="http://purl.org/dc/elements/1.1/"
   xmlns:cc="http://creativecommons.org/ns#"
   xmlns:rdf="http://www.w3.org/1999/02/22-rdf-syntax-ns#"
   xmlns:svg="http://www.w3.org/2000/svg"
   xmlns="http://www.w3.org/2000/svg"
   xmlns:sodipodi="http://sodipodi.sourceforge.net/DTD/sodipodi-0.dtd"
   xmlns:inkscape="http://www.inkscape.org/namespaces/inkscape"
   width="48"
   viewBox="0 0 48 48"
   height="48"
   id="svg2"
   version="1.1"
   inkscape:version="0.91 r13725"
   sodipodi:docname="application-vbox-1_P.svg">
  <metadata
     id="metadata30">
    <rdf:RDF>
      <cc:Work
         rdf:about="">
        <dc:format>image/svg+xml</dc:format>
        <dc:type
           rdf:resource="http://purl.org/dc/dcmitype/StillImage" />
        <dc:title></dc:title>
      </cc:Work>
    </rdf:RDF>
  </metadata>
  <defs
     id="defs28" />
  <sodipodi:namedview
     pagecolor="#ffffff"
     bordercolor="#666666"
     borderopacity="1"
     objecttolerance="10"
     gridtolerance="10"
     guidetolerance="10"
     inkscape:pageopacity="0"
     inkscape:pageshadow="2"
     inkscape:window-width="1920"
     inkscape:window-height="1013"
     id="namedview26"
     showgrid="false"
     inkscape:zoom="1"
     inkscape:cx="17.99828"
     inkscape:cy="-4.4440262"
     inkscape:window-x="0"
     inkscape:window-y="27"
     inkscape:window-maximized="1"
     inkscape:current-layer="svg2">
    <inkscape:grid
       type="xygrid"
       id="grid4152" />
  </sodipodi:namedview>
  <path
     style="fill:#14aae9;fill-opacity:1"
     d="M 8,1 C 6.9714285,1 6,1.9714285 6,3 l 0,42 c 0,0.971429 1.0285714,2 2,2 l 32,0 c 0.971429,0 2,-1.028571 2,-2 L 42,14 29,1 z"
     id="path4" />
  <path
     style="fill-opacity:.196"
     d="M 29,12 29.0625,12.0625 29.21875,12 29,12 z m 2,2 11,11 0,-11 -11,0 z"
     id="path6" />
  <path
     style="fill:#fff;fill-opacity:.392"
     d="m 29,1 13,13 -11,0 c -0.971429,0 -2,-1.028571 -2,-2 L 29,1 z"
     id="path8" />
  <path
     style="fill-opacity:.196"
     d="m 6,35 0,10 c 0,0.971429 1.0285714,2 2,2 l 32,0 c 0.971429,0 2,-1.028571 2,-2 l 0,-10 z"
     id="path10" />
  <path
     style="fill:#ffffff;fill-opacity:1;fill-rule:nonzero;stroke:none"
     d="m 23.940652,14.342767 c -1.14931,4.391311 -2.342061,8.772518 -3.512073,13.155746 -1.827918,-5.05032 -0.02713,-0.02375 -1.827153,-5.049827 l -3.601426,0 0,1.800911 2.700614,0 2.700613,8.080452 0.342983,0.0089 c 0.918009,-4.250351 2.159126,-8.428986 3.284136,-12.624568 l 0,-0.01637 c 0.695708,2.531895 1.378262,5.068361 2.053269,7.603846 0.632706,-2.384649 1.274729,-4.769878 1.911034,-7.154529 1.406716,3.212453 -0.02686,-0.01428 1.407749,3.212534 l 3.599602,0 -0.0017,-1.809988 -2.700613,0 c -2.303122,-6.860355 -1.3e-5,3.26e-4 -2.306735,-7.014458 -0.636306,2.36759 -1.276553,4.734137 -1.912858,7.098138 -0.643507,-2.434031 -1.300682,-4.867753 -1.969388,-7.294601 l 0.0019,0.0019 z"
     id="path55"
     inkscape:connector-curvature="0"
     sodipodi:nodetypes="ccccccccccccccccccccc" />
  <g
     id="g4154">
    <path
       d="M 14.185263,45 Q 13.882106,44.108239 13.541052,42.983844 13.199999,41.859451 12.896842,40.747981 12.593685,39.623586 12.353685,38.628433 12.113684,37.633279 12,37 l 1.642106,0 q 0.07579,0.620354 0.227367,1.447496 0.15158,0.814216 0.328421,1.693053 0.189474,0.865913 0.391579,1.718902 0.214737,0.840065 0.416842,1.512116 0.202106,-0.659127 0.404212,-1.499192 0.202105,-0.852989 0.378946,-1.718901 0.176842,-0.878838 0.328422,-1.705978 Q 16.269474,37.620354 16.370526,37 L 18,37 q -0.151579,0.775443 -0.378947,1.731826 -0.214737,0.956381 -0.505264,2.016155 -0.277895,1.04685 -0.618947,2.145395 Q 16.155789,43.978998 15.789473,45 l -1.60421,0 z"
       style="font-style:normal;font-variant:normal;font-weight:bold;font-stretch:normal;font-size:11.95640945px;line-height:125%;font-family:'Ubuntu Mono';-inkscape-font-specification:'Ubuntu Mono, Bold';text-align:start;letter-spacing:0px;word-spacing:0px;writing-mode:lr-tb;text-anchor:start;fill:#ffffff;fill-opacity:1;stroke:none;stroke-width:1px;stroke-linecap:butt;stroke-linejoin:miter;stroke-opacity:1"
       id="path4140"
       inkscape:connector-curvature="0" />
    <path
       d="m 24,42.539433 q 0,0.706625 -0.228916,1.186119 -0.228916,0.466878 -0.626506,0.757099 -0.385542,0.277603 -0.927712,0.403785 Q 21.686747,45 21.072288,45 20.578313,45 20.048193,44.936908 19.518072,44.886441 19,44.77287 l 0,-7.583595 q 0.421686,-0.07571 0.927711,-0.126183 0.506024,-0.06309 1,-0.06309 0.843373,0 1.373493,0.189275 0.530121,0.176656 0.831327,0.479495 0.301204,0.290221 0.409637,0.656151 0.108434,0.365931 0.108434,0.731862 0,0.555205 -0.26506,0.984227 -0.253011,0.429021 -0.686747,0.681387 0.759037,0.290221 1.024097,0.782335 Q 24,41.996845 24,42.539432 Z m -3.518073,-1.059937 0,2.119873 q 0.156627,0.02523 0.33735,0.03785 0.19277,0.01262 0.373494,0.01262 0.253011,0 0.493976,-0.03785 0.240964,-0.05047 0.421687,-0.164037 0.19277,-0.126183 0.313252,-0.340695 0.120482,-0.227128 0.120482,-0.567823 0,-0.567824 -0.349397,-0.807571 -0.33735,-0.252366 -0.915663,-0.252366 l -0.795181,0 z m 0.578314,-1.287066 q 0.566264,0 0.855421,-0.252366 0.289157,-0.264984 0.289157,-0.719243 0,-0.277602 -0.08433,-0.441639 -0.08434,-0.176657 -0.228915,-0.264986 -0.144579,-0.100945 -0.337349,-0.126183 -0.192772,-0.03785 -0.397591,-0.03785 -0.168674,0 -0.349398,0.01262 -0.180723,0.01262 -0.325301,0.03785 l 0,1.791798 0.578314,0 z"
       style="font-style:normal;font-variant:normal;font-weight:bold;font-stretch:normal;font-size:11.95640945px;line-height:125%;font-family:'Ubuntu Mono';-inkscape-font-specification:'Ubuntu Mono, Bold';text-align:start;letter-spacing:0px;word-spacing:0px;writing-mode:lr-tb;text-anchor:start;fill:#ffffff;fill-opacity:1;stroke:none;stroke-width:1px;stroke-linecap:butt;stroke-linejoin:miter;stroke-opacity:1"
       id="path4142"
       inkscape:connector-curvature="0" />
    <path
       d="m 26.401345,41 q 0,0.557276 0.03363,1.052631 0.04485,0.482973 0.156951,0.842106 0.123318,0.359133 0.336322,0.569659 0.213005,0.210527 0.571749,0.210527 0.347534,0 0.560539,-0.210527 0.224215,-0.210526 0.336322,-0.569659 0.123318,-0.371517 0.156951,-0.854489 Q 28.59865,41.557276 28.59865,41 q 0,-0.557276 -0.04484,-1.040248 -0.03363,-0.495355 -0.156951,-0.854489 -0.112107,-0.359133 -0.325111,-0.569659 -0.213005,-0.210527 -0.57175,-0.210527 -0.358744,0 -0.571749,0.210527 -0.213004,0.210526 -0.336322,0.582043 -0.112107,0.359133 -0.15695,0.842105 Q 26.401345,40.442724 26.401345,41 Z M 25,41 Q 25,39.018576 25.661435,38.01548 26.32287,37 27.5,37 28.721974,37 29.360987,38.01548 30,39.018576 30,41 30,42.981424 29.349777,43.996904 28.699552,45 27.51121,45 26.289237,45 25.639013,43.996904 25,42.981424 25,41 Z"
       style="font-style:normal;font-variant:normal;font-weight:bold;font-stretch:normal;font-size:11.95640945px;line-height:125%;font-family:'Ubuntu Mono';-inkscape-font-specification:'Ubuntu Mono, Bold';text-align:start;letter-spacing:0px;word-spacing:0px;writing-mode:lr-tb;text-anchor:start;fill:#ffffff;fill-opacity:1;stroke:none;stroke-width:1px;stroke-linecap:butt;stroke-linejoin:miter;stroke-opacity:1"
       id="path4144"
       inkscape:connector-curvature="0" />
    <path
       d="M 35.330544,45 Q 35.09205,44.340872 34.740585,43.539581 34.401674,42.738288 34.025105,41.936995 33.661088,42.699516 33.297072,43.526657 32.933054,44.340872 32.669456,45 L 31,45 q 0.125523,-0.34895 0.364017,-0.840064 0.251046,-0.491116 0.539748,-1.059774 0.301256,-0.56866 0.627616,-1.163167 0.326361,-0.607432 0.627615,-1.163167 L 31.125523,37 32.794978,37 34.025105,39.558966 35.317991,37 l 1.556486,0 -1.983264,3.735056 q 0.338913,0.555736 0.665273,1.163167 0.326358,0.607431 0.602509,1.189015 0.288703,0.568659 0.502093,1.072698 Q 36.874477,44.65105 37,45 l -1.669456,0 z"
       style="font-style:normal;font-variant:normal;font-weight:bold;font-stretch:normal;font-size:11.95640945px;line-height:125%;font-family:'Ubuntu Mono';-inkscape-font-specification:'Ubuntu Mono, Bold';text-align:start;letter-spacing:0px;word-spacing:0px;writing-mode:lr-tb;text-anchor:start;fill:#ffffff;fill-opacity:1;stroke:none;stroke-width:1px;stroke-linecap:butt;stroke-linejoin:miter;stroke-opacity:1"
       id="path4146"
       inkscape:connector-curvature="0" />
  </g>
</svg>

<svg xmlns="http://www.w3.org/2000/svg" viewBox="0 0 48 48">
 <path d="m 8 1 c -1.029 0 -2 0.971 -2 2 l 0 42 c 0 0.971 1.029 2 2 2 l 32 0 c 0.971 0 2 -1.029 2 -2 l 0 -31 -13 -13 z" style="fill:#14aae9;fill-opacity:1"/>
 <path d="m 29 12 0.063 0.063 0.156 -0.063 -0.219 0 z m 2 2 11 11 0 -11 -11 0 z" style="fill-opacity:0.196"/>
 <path d="m 29 1 13 13 -11 0 c -0.971 0 -2 -1.029 -2 -2 l 0 -11 z" style="fill:#fff;fill-opacity:0.392"/>
 <path d="m 6 35 0 10 c 0 0.971 1.029 2 2 2 l 32 0 c 0.971 0 2 -1.029 2 -2 l 0 -10 z" style="fill-opacity:0.196"/>
 <path d="m 23.941 14.343 c -1.149 4.391 -2.342 8.773 -3.512 13.156 -1.828 -5.05 -0.027 -0.024 -1.827 -5.05 l -3.601 0 0 1.801 2.701 0 2.701 8.08 0.343 0.009 c 0.918 -4.25 2.159 -8.429 3.284 -12.625 l 0 -0.016 c 0.696 2.532 1.378 5.068 2.053 7.604 0.633 -2.385 1.275 -4.77 1.911 -7.155 1.407 3.212 -0.027 -0.014 1.408 3.213 l 3.6 0 -0.002 -1.81 -2.701 0 c -2.303 -6.86 0 0 -2.307 -7.01 -0.636 2.368 -1.277 4.734 -1.913 7.098 -0.644 -2.434 -1.301 -4.868 -1.969 -7.295 l 0.002 0.002 z" style="fill:#fff;fill-opacity:1;stroke:none;fill-rule:nonzero"/>
 <g>
  <path d="m 14.185 45 q -0.303 -0.892 -0.644 -2.02 -0.341 -1.124 -0.644 -2.236 -0.303 -1.124 -0.543 -2.12 -0.24 -0.995 -0.354 -1.628 l 1.642 0 q 0.076 0.62 0.227 1.447 0.152 0.814 0.328 1.693 0.189 0.866 0.392 1.719 0.215 0.84 0.417 1.512 0.202 -0.659 0.404 -1.499 0.202 -0.853 0.379 -1.719 0.177 -0.879 0.328 -1.706 q 0.152 -0.827 0.253 -1.447 l 1.629 0 q -0.152 0.775 -0.379 1.732 -0.215 0.956 -0.505 2.02 -0.278 1.047 -0.619 2.145 q -0.341 1.086 -0.707 2.107 l -1.604 0 z" style="fill:#fff;fill-opacity:1;stroke:none"/>
  <path d="m 24 42.539 q 0 0.707 -0.229 1.186 -0.229 0.467 -0.627 0.757 -0.386 0.278 -0.928 0.404 q -0.53 0.114 -1.145 0.114 -0.494 0 -1.024 -0.063 -0.53 -0.05 -1.048 -0.164 l 0 -7.584 q 0.422 -0.076 0.928 -0.126 0.506 -0.063 1 -0.063 0.843 0 1.373 0.189 0.53 0.177 0.831 0.479 0.301 0.29 0.41 0.656 0.108 0.366 0.108 0.732 0 0.555 -0.265 0.984 -0.253 0.429 -0.687 0.681 0.759 0.29 1.024 0.782 q 0.277 0.492 0.277 1.035 m -3.518 -1.06 0 2.12 q 0.157 0.025 0.337 0.038 0.193 0.013 0.373 0.013 0.253 0 0.494 -0.038 0.241 -0.05 0.422 -0.164 0.193 -0.126 0.313 -0.341 0.12 -0.227 0.12 -0.568 0 -0.568 -0.349 -0.808 -0.337 -0.252 -0.916 -0.252 l -0.795 0 z m 0.578 -1.287 q 0.566 0 0.855 -0.252 0.289 -0.265 0.289 -0.719 0 -0.278 -0.084 -0.442 -0.084 -0.177 -0.229 -0.265 -0.145 -0.101 -0.337 -0.126 -0.193 -0.038 -0.398 -0.038 -0.169 0 -0.349 0.013 -0.181 0.013 -0.325 0.038 l 0 1.792 0.578 0 z" style="fill:#fff;fill-opacity:1;stroke:none"/>
  <path d="m 26.401 41 q 0 0.557 0.034 1.053 0.045 0.483 0.157 0.842 0.123 0.359 0.336 0.57 0.213 0.211 0.572 0.211 0.348 0 0.561 -0.211 0.224 -0.211 0.336 -0.57 0.123 -0.372 0.157 -0.854 q 0.045 -0.483 0.045 -1.04 q 0 -0.557 -0.045 -1.04 -0.034 -0.495 -0.157 -0.854 -0.112 -0.359 -0.325 -0.57 -0.213 -0.211 -0.572 -0.211 -0.359 0 -0.572 0.211 -0.213 0.211 -0.336 0.582 -0.112 0.359 -0.157 0.842 q -0.034 0.483 -0.034 1.04 m -1.401 0 q 0 -1.981 0.661 -2.985 0.661 -1.015 1.839 -1.015 1.222 0 1.861 1.015 0.639 1 0.639 2.985 0 1.981 -0.65 2.997 -0.65 1 -1.839 1 -1.222 0 -1.872 -1 -0.639 -1.015 -0.639 -2.997" style="fill:#fff;fill-opacity:1;stroke:none"/>
  <path d="m 35.33 45 q -0.238 -0.659 -0.59 -1.46 -0.339 -0.801 -0.715 -1.603 -0.364 0.763 -0.728 1.59 -0.364 0.814 -0.628 1.473 l -1.669 0 q 0.126 -0.349 0.364 -0.84 0.251 -0.491 0.54 -1.06 0.301 -0.569 0.628 -1.163 0.326 -0.607 0.628 -1.163 l -2.033 -3.774 1.669 0 1.23 2.559 1.293 -2.559 l 1.556 0 -1.983 3.735 q 0.339 0.556 0.665 1.163 0.326 0.607 0.603 1.189 0.289 0.569 0.502 1.073 q 0.213 0.491 0.339 0.84 l -1.669 0 z" style="fill:#fff;fill-opacity:1;stroke:none"/>
 </g>
</svg>
